X:1
T:Audite, silete
T:Audite, silete
T:Michael Prätorius
C:Michael Prätorius
%%score [ 1 2 3 4 ]
L:1/8
M:2/2
K:G
V:1 treble nm="Soprano"
V:2 treble nm="Alto"
V:3 treble-8 nm="Tenor"
V:4 bass nm="Bass"
V:1
 z2[Q:1/4=120] A2 | A4 A2 A2 | ^G4 G2 G2 | A2 c2 B2 A2 | ^G4 :: z2 c2 | c2 c2 c2 c2 | B4 B2 B2 | %8
w: Au-|di- te, si-|le- te, di-|vi- na mu- si-|ca|dul-|ci so- na su-|sur- rant in|
w: Iam|va- ri- a|vo- ce con-|cen- tum du- ci-|te|dul-|ci- que iu- bi-|lan- tes a|
 A2 A2 ^G2 G2 | A4 :| %10
w: au- re can- ti-|ca|
w: mo- re psal- li-|te|
V:2
 z2 E2 | E4 E2 E2 | E4 E2 E2 | E2 E2 =F2 F2 | E4 :: z2 G2 | G2 G2 G2 G2 | G4 G2 G2 | E2 =F2 E2 E2 | %9
w: Au-|di- te, si-|le- te, di-|vi- na mu- si-|ca|dul-|ci so- na su-|sur- rant in|au- re can- ti-|
w: Iam|va- ri- a|vo- ce con-|cen- tum du- ci-|te|dul-|ci- que iu- bi-|lan- tes a|mo- re psal- li-|
 E4 :| %10
w: ca|
w: te|
V:3
 z2 A2 | c4 c2 c2 | B4 B2 B2 | c2 c2 d2 d2 | B4 :: z2 e2 | e2 e2 e2 e2 | d4 d2 d2 | c2 d2 B2 B2 | %9
w: Au-|di- te, si-|le- te, di-|vi- na mu- si-|ca|dul-|ci so- na su-|sur- rant in|au- re can- ti-|
w: Iam|va- ri- a|vo- ce con-|cen- tum du- ci-|te|dul-|ci- que iu- bi-|lan- tes a|mo- re psal- li-|
 ^c4 :| %10
w: ca|
w: te|
V:4
 z2 A,,2 | A,4 A,2 A,2 | E,4 E,2 E,2 | A,2 A,2 D,2 D,2 | E,4 :: z2 C,2 | C,2 C,2 C,2 C,2 | %7
w: Au-|di- te, si-|le- te, di-|vi- na mu- si-|ca|dul-|ci so- na su-|
w: Iam|va- ri- a|vo- ce con-|cen- tum du- ci-|te|dul-|ci- que iu- bi-|
 G,4 G,2 G,2 | A,2 D,2 E,2 E,2 | [A,,A,]4 :| %10
w: sur- rant in|au- re can- ti-|ca|
w: lan- tes a|mo- re psal- li-|te|

